static/img/kroki/a3c20132bb54bdf430d2cffa3ef578f0.svg

<?xml version="1.0" encoding="us-ascii" standalone="no"?><svg xmlns="http://www.w3.org/2000/svg" xmlns:xlink="http://www.w3.org/1999/xlink" contentStyleType="text/css" height="252px" preserveAspectRatio="none" style="width:582px;height:252px;" version="1.1" viewBox="0 0 582 252" width="582px" zoomAndPan="magnify"><defs/><g><!--class azure_cosmos_db_sql_database--><g id="elem_azure_cosmos_db_sql_database"><rect codeLine="23" fill="#3D176E" height="39.7891" id="azure_cosmos_db_sql_database" rx="2.5" ry="2.5" style="stroke:#000D19;stroke-width:0.5;" width="303" x="103" y="7"/><ellipse cx="118" cy="26.8945" fill="#ADD1B2" rx="11" ry="11" style="stroke:#181818;stroke-width:1.0;"/><path d="M120.9688,32.5352 Q120.3906,32.832 119.75,32.9727 Q119.1094,33.1289 118.4063,33.1289 Q115.9063,33.1289 114.5781,31.4883 Q113.2656,29.832 113.2656,26.707 Q113.2656,23.582 114.5781,21.9258 Q115.9063,20.2695 118.4063,20.2695 Q119.1094,20.2695 119.75,20.4258 Q120.4063,20.582 120.9688,20.8789 L120.9688,23.5977 Q120.3438,23.0195 119.75,22.7539 Q119.1563,22.4727 118.5313,22.4727 Q117.1875,22.4727 116.5,23.5508 Q115.8125,24.6133 115.8125,26.707 Q115.8125,28.8008 116.5,29.8789 Q117.1875,30.9414 118.5313,30.9414 Q119.1563,30.9414 119.75,30.6758 Q120.3438,30.3945 120.9688,29.8164 L120.9688,32.5352 Z " fill="#000000"/><text fill="#D9B8FF" font-family="Helvetica" font-size="17" lengthAdjust="spacing" textLength="261" x="137" y="32.7798">azure_cosmos_db_sql_database</text></g><!--class azure_cosmos_db_sql_database_client_encryption_key--><g id="elem_azure_cosmos_db_sql_database_client_encryption_key"><rect codeLine="26" fill="#3D176E" height="39.7891" id="azure_cosmos_db_sql_database_client_encryption_key" rx="2.5" ry="2.5" style="stroke:#000D19;stroke-width:0.5;" width="495" x="7" y="206.58"/><ellipse cx="22" cy="226.4745" fill="#ADD1B2" rx="11" ry="11" style="stroke:#181818;stroke-width:1.0;"/><path d="M24.9688,232.1152 Q24.3906,232.412 23.75,232.5527 Q23.1094,232.7089 22.4063,232.7089 Q19.9063,232.7089 18.5781,231.0683 Q17.2656,229.412 17.2656,226.287 Q17.2656,223.162 18.5781,221.5058 Q19.9063,219.8495 22.4063,219.8495 Q23.1094,219.8495 23.75,220.0058 Q24.4063,220.162 24.9688,220.4589 L24.9688,223.1777 Q24.3438,222.5995 23.75,222.3339 Q23.1563,222.0527 22.5313,222.0527 Q21.1875,222.0527 20.5,223.1308 Q19.8125,224.1933 19.8125,226.287 Q19.8125,228.3808 20.5,229.4589 Q21.1875,230.5214 22.5313,230.5214 Q23.1563,230.5214 23.75,230.2558 Q24.3438,229.9745 24.9688,229.3964 L24.9688,232.1152 Z " fill="#000000"/><text fill="#D9B8FF" font-family="Helvetica" font-size="17" lengthAdjust="spacing" textLength="453" x="41" y="232.3598">azure_cosmos_db_sql_database_client_encryption_key</text></g><!--class azure_cosmos_db_sql_database_container--><g id="elem_azure_cosmos_db_sql_database_container"><rect codeLine="29" fill="#3D176E" height="39.7891" id="azure_cosmos_db_sql_database_container" rx="2.5" ry="2.5" style="stroke:#000D19;stroke-width:0.5;" width="391" x="184" y="106.79"/><ellipse cx="199" cy="126.6845" fill="#ADD1B2" rx="11" ry="11" style="stroke:#181818;stroke-width:1.0;"/><path d="M201.9688,132.3252 Q201.3906,132.622 200.75,132.7627 Q200.1094,132.9189 199.4063,132.9189 Q196.9063,132.9189 195.5781,131.2783 Q194.2656,129.622 194.2656,126.497 Q194.2656,123.372 195.5781,121.7158 Q196.9063,120.0595 199.4063,120.0595 Q200.1094,120.0595 200.75,120.2158 Q201.4063,120.372 201.9688,120.6689 L201.9688,123.3877 Q201.3438,122.8095 200.75,122.5439 Q200.1563,122.2627 199.5313,122.2627 Q198.1875,122.2627 197.5,123.3408 Q196.8125,124.4033 196.8125,126.497 Q196.8125,128.5908 197.5,129.6689 Q198.1875,130.7314 199.5313,130.7314 Q200.1563,130.7314 200.75,130.4658 Q201.3438,130.1845 201.9688,129.6064 L201.9688,132.3252 Z " fill="#000000"/><text fill="#D9B8FF" font-family="Helvetica" font-size="17" lengthAdjust="spacing" textLength="349" x="218" y="132.5698">azure_cosmos_db_sql_database_container</text></g><!--link azure_cosmos_db_sql_database to azure_cosmos_db_sql_database_client_encryption_key--><g id="link_azure_cosmos_db_sql_database_azure_cosmos_db_sql_database_client_encryption_key"><path codeLine="32" d="M221.68,47.16 C201.65,60.94 177.79,81.5 166.5,106.79 C159.29,122.94 159.29,130.43 166.5,146.58 C177.79,171.87 196.7068,189.0293 216.7368,202.8093 " fill="none" id="azure_cosmos_db_sql_database-to-azure_cosmos_db_sql_database_client_encryption_key" style="stroke:#1A83AF;stroke-width:2.0;"/><polygon fill="#1A83AF" points="221.68,206.21,216.5324,197.8134,217.5607,203.376,211.9981,204.4043,221.68,206.21" style="stroke:#1A83AF;stroke-width:2.0;"/></g><!--link azure_cosmos_db_sql_database to azure_cosmos_db_sql_database_container--><g id="link_azure_cosmos_db_sql_database_azure_cosmos_db_sql_database_container"><path codeLine="33" d="M279.2,47.22 C301.11,64.36 328.2351,85.572 350.1351,102.712 " fill="none" id="azure_cosmos_db_sql_database-to-azure_cosmos_db_sql_database_container" style="stroke:#1A83AF;stroke-width:2.0;"/><polygon fill="#1A83AF" points="354.86,106.41,350.2379,97.7131,350.9226,103.3284,345.3073,104.013,354.86,106.41" style="stroke:#1A83AF;stroke-width:2.0;"/></g><!--link azure_cosmos_db_sql_database_container to azure_cosmos_db_sql_database_client_encryption_key--><g id="link_azure_cosmos_db_sql_database_container_azure_cosmos_db_sql_database_client_encryption_key"><path codeLine="34" d="M354.8,147.01 C332.89,164.15 305.7649,185.362 283.8649,202.502 " fill="none" id="azure_cosmos_db_sql_database_container-to-azure_cosmos_db_sql_database_client_encryption_key" style="stroke:#1A83AF;stroke-width:2.0;"/><polygon fill="#1A83AF" points="279.14,206.2,288.6927,203.803,283.0774,203.1184,283.7621,197.5031,279.14,206.2" style="stroke:#1A83AF;stroke-width:2.0;"/></g><!--SRC=[hP9DImCn48Rl-oi2FHUw5crx4TP2qKiHwqqap2QJDknkiavIorRyxtPRAt7NVg1UypupyyoGXPR8i2XznGeiKYGNkKoR4WWAbX3PrTZcbbX7AL3zGJESMEDF0bCeaDrY_efU2sWIZmijCeFEiOiWkW6HpSakZTorzmJ6RI8qFg36EJYNU4ywNNeCPEGe7IhL99jDEtqP3wwmXLcII9z8hzUJyQY9d1nrTEylOgRNoEBmQ5FhiQNP6h6bZbhMH23PMdIV7tIy1ocrcRFBuErXvqG6wTlxR07IhcfQGUx2CSuZeVLLYUFMLZWQIZNu4Rux14UYFXs3zPAG2-iAwxXCkNl9kGGFAJXaRr7qVWR7HQutlucZ4LILNbl3CwpEhzuS3tHzYMt5KQFkKoTEXlrayjoz_eNJlpNVAqTdRlPNxmy0]--></g></svg>

<svg xmlns="http://www.w3.org/2000/svg" width="582" height="252" viewBox="0 0 582 252"><rect width="303" height="39.789" x="103" y="7" fill="#3D176E" rx="2.5" ry="2.5" style="stroke:#000d19;stroke-width:.5"/><circle cx="118" cy="26.895" r="11" fill="#ADD1B2" style="stroke:#181818;stroke-width:1"/><path d="M120.969 32.535q-.578.297-1.219.438-.64.156-1.344.156-2.5 0-3.828-1.64-1.312-1.657-1.312-4.782t1.312-4.781q1.328-1.656 3.828-1.656.703 0 1.344.156.656.156 1.219.453v2.719q-.625-.578-1.219-.844-.594-.281-1.219-.281-1.344 0-2.031 1.078-.687 1.062-.687 3.156t.687 3.172q.688 1.062 2.031 1.062.625 0 1.219-.265.594-.281 1.219-.86z"/><text x="137" y="32.78" fill="#D9B8FF" font-family="Helvetica" font-size="17" textLength="261">azure_cosmos_db_sql_database</text><rect width="495" height="39.789" x="7" y="206.58" fill="#3D176E" rx="2.5" ry="2.5" style="stroke:#000d19;stroke-width:.5"/><circle cx="22" cy="226.475" r="11" fill="#ADD1B2" style="stroke:#181818;stroke-width:1"/><path d="M24.969 232.115q-.578.297-1.219.438-.64.156-1.344.156-2.5 0-3.828-1.64-1.312-1.657-1.312-4.782t1.312-4.781q1.328-1.656 3.828-1.656.703 0 1.344.156.656.156 1.219.453v2.719q-.625-.578-1.219-.844-.594-.281-1.219-.281-1.343 0-2.031 1.078-.687 1.062-.687 3.156t.687 3.172q.688 1.062 2.031 1.062.625 0 1.219-.265.594-.281 1.219-.86z"/><text x="41" y="232.36" fill="#D9B8FF" font-family="Helvetica" font-size="17" textLength="453">azure_cosmos_db_sql_database_client_encryption_key</text><rect width="391" height="39.789" x="184" y="106.79" fill="#3D176E" rx="2.5" ry="2.5" style="stroke:#000d19;stroke-width:.5"/><circle cx="199" cy="126.684" r="11" fill="#ADD1B2" style="stroke:#181818;stroke-width:1"/><path d="M201.969 132.325q-.578.297-1.219.438-.64.156-1.344.156-2.5 0-3.828-1.64-1.312-1.657-1.312-4.782t1.312-4.781q1.328-1.656 3.828-1.656.703 0 1.344.156.656.156 1.219.453v2.719q-.625-.579-1.219-.844-.594-.281-1.219-.281-1.344 0-2.031 1.078-.687 1.062-.687 3.156t.687 3.172q.688 1.062 2.031 1.062.625 0 1.219-.265.594-.281 1.219-.86z"/><text x="218" y="132.57" fill="#D9B8FF" font-family="Helvetica" font-size="17" textLength="349">azure_cosmos_db_sql_database_container</text><path fill="none" d="M221.68 47.16c-20.03 13.78-43.89 34.34-55.18 59.63-7.21 16.15-7.21 23.64 0 39.79 11.29 25.29 30.207 42.45 50.237 56.23" style="stroke:#1a83af;stroke-width:2"/><path fill="#1A83AF" d="m221.68 206.21-5.148-8.397 1.029 5.563-5.563 1.028z" style="stroke:#1a83af;stroke-width:2"/><path fill="none" d="M279.2 47.22c21.91 17.14 49.035 38.352 70.935 55.492" style="stroke:#1a83af;stroke-width:2"/><path fill="#1A83AF" d="m354.86 106.41-4.622-8.697.685 5.615-5.616.685z" style="stroke:#1a83af;stroke-width:2"/><path fill="none" d="M354.8 147.01c-21.91 17.14-49.035 38.352-70.935 55.492" style="stroke:#1a83af;stroke-width:2"/><path fill="#1A83AF" d="m279.14 206.2 9.553-2.397-5.616-.685.685-5.615z" style="stroke:#1a83af;stroke-width:2"/></svg>
